svg/fluentui-system-icons/ic_fluent_arrow_repeat_all_off_16_regular.svg

<svg width="16" height="16" viewBox="0 0 16 16" fill="none" xmlns="http://www.w3.org/2000/svg">
<path d="M2.78431 2.08834L2.85355 2.14619L13.8536 13.1462C14.0488 13.3415 14.0488 13.658 13.8536 13.8533C13.68 14.0269 13.4106 14.0462 13.2157 13.9112L13.1464 13.8533L11.1305 11.8378C10.8437 11.9221 10.5435 11.9752 10.2339 11.993L10 11.9997L6.707 11.999L7.85525 13.1479C8.02882 13.3215 8.0481 13.5909 7.91311 13.7858L7.85525 13.855C7.68169 14.0286 7.41226 14.0479 7.21739 13.9129L7.14815 13.855L5.14645 11.8533C4.97288 11.6797 4.9536 11.4103 5.08859 11.2154L5.14645 11.1462L7.14815 9.14449C7.34341 8.94923 7.65999 8.94923 7.85525 9.14449C8.02882 9.31806 8.0481 9.58748 7.91311 9.78235L7.85525 9.8516L6.707 10.999L10 10.9997C10.0941 10.9997 10.1871 10.9954 10.279 10.9869L4.62614 5.33211C3.66034 5.83052 3 6.83802 3 7.99975C3 8.8193 3.32863 9.56209 3.8613 10.1035C3.94745 10.1919 4 10.3134 4 10.4472C4 10.7234 3.77614 10.9472 3.5 10.9472C3.36244 10.9472 3.23785 10.8917 3.14745 10.8018C2.4379 10.0823 2 9.09215 2 7.99975C2 6.56381 2.75664 5.30459 3.89297 4.59904L2.14645 2.8533C1.95118 2.65804 1.95118 2.34146 2.14645 2.14619C2.32001 1.97263 2.58944 1.95334 2.78431 2.08834ZM12.5 5.04865C12.6227 5.04865 12.7351 5.09287 12.8221 5.16624L12.8935 5.23788C13.579 5.95588 14 6.92865 14 7.99975C14 9.07744 13.5738 10.0556 12.8808 10.7748L12.174 10.0671C12.6858 9.52898 13 8.80105 13 7.99975C13 7.17778 12.6694 6.43303 12.134 5.89117C12.0522 5.80305 12 5.68194 12 5.54865C12 5.2725 12.2239 5.04865 12.5 5.04865ZM8.14645 2.14449C8.32001 1.97093 8.58944 1.95164 8.78431 2.08664L8.85355 2.14449L10.8553 4.14619L10.9131 4.21544C11.0312 4.38595 11.0312 4.61354 10.9131 4.78405L10.8553 4.8533L8.907 6.80005L8.2 6.09305L9.294 4.99905H7.105L6.105 3.99905H9.294L8.14645 2.8516L8.08859 2.78235C7.9536 2.58748 7.97288 2.31806 8.14645 2.14449Z" fill="#212121"/>
</svg>

<svg xmlns="http://www.w3.org/2000/svg" width="16" height="16"><path d="m2.784 2.088.07.058 11 11a.5.5 0 0 1-.638.765l-.07-.058-2.016-2.015a3.989 3.989 0 0 1-.896.155L10 12l-3.293-.001 1.148 1.149a.5.5 0 0 1 .058.638l-.058.069a.5.5 0 0 1-.638.058l-.069-.058-2.002-2.002a.5.5 0 0 1-.057-.638l.057-.069 2.002-2.002a.5.5 0 0 1 .765.638l-.058.07-1.148 1.147H10c.094 0 .187-.004.279-.012L4.626 5.332a3 3 0 0 0-.765 4.772.5.5 0 0 1-.714.698 3.997 3.997 0 0 1 .746-6.203L2.146 2.853a.5.5 0 0 1 .638-.765Zm9.716 2.96a.5.5 0 0 1 .322.118l.072.072A3.987 3.987 0 0 1 14 8a3.987 3.987 0 0 1-1.12 2.775l-.706-.708A2.99 2.99 0 0 0 13 8a2.99 2.99 0 0 0-.866-2.109.5.5 0 0 1 .366-.843ZM8.146 2.145a.5.5 0 0 1 .638-.057l.07.057 2.001 2.002.058.07a.5.5 0 0 1 0 .568l-.058.07L8.907 6.8 8.2 6.093l1.094-1.094H7.105l-1-1h3.189L8.146 2.852l-.057-.07a.5.5 0 0 1 .057-.638Z"/></svg>
